X: 10
T:10.  Free State Of Winston
C:c 2000 Harry Bolick
R:Breakdown
O:United States
A:Hastings On Hudson, New York
M:4/4
L:1/8
Q:200
K:D
 D |: "C"=c2 "G" B2 "D"A/2B/2A/2G/2  F/2E/2D/2E/2 | F/2E/2D =c/2B/2A d2 dD|
"C"=c2 "G" B2 "D"A/2B/2A/2G/2  F/2E/2D/2E/2 |1 F/2E/2D  a/2g/2e d3 D :|2 F/2E/2D  a/2g/2e d3 d ||
|:"G" gg dg "D" a3a | ba gd "C" e3 e |
 ge d "Am" e2 eg A |1 "C"=c/2B/2A/2c/2 "G" B/2A/2G  "D"A3 A :|2 "C"=c/2B/2A/2c/2"G"  B/2A/2G "D" A4 ||
